static/assets/images/icons/cm3.svg

<svg width="257" height="256" viewBox="0 0 257 256" fill="none" xmlns="http://www.w3.org/2000/svg">
<path d="M175.531 89.054C177.857 87.7288 180.359 86.7056 182.961 85.977C183.324 85.8754 183.689 85.7796 184.056 85.6894V77.6098C184.035 81.741 181.228 85.7819 175.531 89.054Z" fill="#5E95FF"/>
<path d="M146.906 184.614L238.117 132.231C243.931 128.892 246.877 124.353 246.924 119.74L246.924 119.675C246.925 119.636 246.925 119.596 246.924 119.557C246.896 115.145 244.215 110.68 238.855 107.146L213.734 90.5855C205.269 85.0052 194.015 83.2408 184.056 85.6894C183.689 85.7796 183.324 85.8754 182.961 85.977C180.359 86.7056 177.857 87.7288 175.531 89.054C181.228 85.7819 184.035 81.741 184.056 77.6098V77.5167C184.035 73.3763 181.219 69.1503 175.713 65.5211L150.889 49.1561C139.847 41.8773 121.615 41.3068 110.167 47.882L18.9557 100.265C13.1236 103.615 10.1768 108.172 10.1486 112.8L10.1487 112.941C10.1782 117.352 12.8584 121.817 18.2183 125.35L27.2148 131.281L116.72 79.8774C119.931 78.033 124.003 77.0952 128.132 77.0391C133.127 76.9712 138.207 78.1933 141.95 80.6612L146.733 83.8138C149.526 85.655 151.194 88.029 151.44 90.5099C152.109 97.2794 160.572 102.924 171.488 103.883L171.85 103.914C175.856 104.266 179.58 105.468 182.377 107.312L186.909 110.299C191.06 113.036 192.614 116.675 191.608 120.024C190.956 122.193 189.231 124.239 186.443 125.841L183.854 127.327L179.989 129.547L96.9379 177.244L106.184 183.34C111.938 187.133 119.643 189.104 127.324 189.192C134.384 189.273 141.423 187.763 146.906 184.614Z" fill="#477BFF"/>
<path fill-rule="evenodd" clip-rule="evenodd" d="M146.906 184.614L238.117 132.231C243.931 128.892 246.877 124.353 246.924 119.74L246.916 143.611C246.741 148.114 243.797 152.522 238.117 155.784L146.906 208.167C141.423 211.316 134.384 212.826 127.324 212.745V189.192C134.384 189.273 141.423 187.763 146.906 184.614Z" fill="#5E95FF"/>
<path fill-rule="evenodd" clip-rule="evenodd" d="M128.132 100.592V77.0391C124.003 77.0952 119.931 78.033 116.72 79.8774L27.2148 131.281V154.834L116.72 103.431C119.931 101.586 124.003 100.648 128.132 100.592Z" fill="#5E95FF"/>
<path d="M27.2148 131.281L18.2183 125.35C12.8584 121.817 10.1782 117.352 10.1487 112.941L10.15 136.604C10.2228 140.979 12.9028 145.399 18.2183 148.903L27.2148 154.834V131.281Z" fill="#1543D8"/>
<path d="M106.184 183.34L96.9379 177.244V200.798L106.184 206.893C111.938 210.686 119.643 212.657 127.324 212.745V189.192C119.643 189.104 111.938 187.133 106.184 183.34Z" fill="#1543D8"/>
<path d="M146.733 83.8138L141.95 80.6612C138.207 78.1933 133.127 76.9712 128.132 77.0391V100.592C133.127 100.525 138.207 101.747 141.95 104.214L146.733 107.367C149.526 109.208 151.194 111.582 151.44 114.063C152.109 120.833 160.572 126.478 171.488 127.436L171.85 127.468C174.802 127.727 177.602 128.448 179.989 129.547L183.854 127.327L186.443 125.841C189.231 124.239 190.956 122.193 191.608 120.024C192.614 116.675 191.06 113.036 186.909 110.299L182.377 107.312C179.58 105.468 175.856 104.266 171.85 103.914L171.488 103.883C160.572 102.924 152.109 97.2794 151.44 90.5099C151.194 88.029 149.526 85.655 146.733 83.8138Z" fill="#1543D8"/>
</svg>

<svg xmlns="http://www.w3.org/2000/svg" fill="none" viewBox="0 0 257 256"><path fill="#5E95FF" d="M175.531 89.054a33 33 0 0 1 7.43-3.077q.544-.152 1.095-.288v-8.08c-.021 4.132-2.828 8.173-8.525 11.445"/><path fill="#477BFF" d="m146.906 184.614 91.211-52.383c5.814-3.339 8.76-7.878 8.807-12.491v-.183c-.028-4.412-2.709-8.877-8.069-12.411l-25.121-16.56c-8.465-5.58-19.719-7.345-29.678-4.897q-.55.135-1.095.288a33 33 0 0 0-7.43 3.077c5.697-3.272 8.504-7.313 8.525-11.444v-.093c-.021-4.14-2.837-8.367-8.343-11.996l-24.824-16.365c-11.042-7.279-29.274-7.85-40.722-1.274l-91.211 52.383c-5.832 3.35-8.78 7.907-8.807 12.535v.141c.03 4.411 2.71 8.876 8.07 12.409l8.996 5.931 89.505-51.404c3.211-1.844 7.283-2.782 11.412-2.838 4.995-.068 10.075 1.154 13.818 3.622l4.783 3.153c2.793 1.841 4.461 4.215 4.707 6.696.669 6.77 9.132 12.414 20.048 13.373l.362.031c4.006.352 7.73 1.554 10.527 3.398l4.532 2.987c4.151 2.737 5.705 6.376 4.699 9.725-.652 2.169-2.377 4.215-5.165 5.817l-2.589 1.486-3.865 2.22-83.051 47.697 9.246 6.096c5.754 3.793 13.459 5.764 21.14 5.852 7.06.081 14.099-1.429 19.582-4.578"/><path fill="#5E95FF" fill-rule="evenodd" d="m146.906 184.614 91.211-52.383c5.814-3.339 8.76-7.878 8.807-12.491l-.008 23.871c-.175 4.503-3.119 8.911-8.799 12.173l-91.211 52.383c-5.483 3.149-12.522 4.659-19.582 4.578v-23.553c7.06.081 14.099-1.429 19.582-4.578m-18.774-84.022V77.039c-4.129.056-8.201.994-11.412 2.838l-89.505 51.404v23.553l89.505-51.403c3.211-1.845 7.283-2.783 11.412-2.839" clip-rule="evenodd"/><path fill="#1543D8" d="m27.215 131.281-8.997-5.931c-5.36-3.533-8.04-7.998-8.07-12.409l.002 23.663c.073 4.375 2.753 8.795 8.068 12.299l8.997 5.931zm78.969 52.059-9.246-6.096v23.554l9.246 6.095c5.754 3.793 13.459 5.764 21.14 5.852v-23.553c-7.681-.088-15.386-2.059-21.14-5.852m40.549-99.526-4.783-3.153c-3.743-2.468-8.823-3.69-13.818-3.622v23.553c4.995-.067 10.075 1.155 13.818 3.622l4.783 3.153c2.793 1.841 4.461 4.215 4.707 6.696.669 6.77 9.132 12.415 20.048 13.373l.362.032c2.952.259 5.752.98 8.139 2.079l3.865-2.22 2.589-1.486c2.788-1.602 4.513-3.648 5.165-5.817 1.006-3.349-.548-6.988-4.699-9.725l-4.532-2.987c-2.797-1.844-6.521-3.046-10.527-3.398l-.362-.031c-10.916-.959-19.379-6.604-20.048-13.373-.246-2.481-1.914-4.855-4.707-6.696"/></svg>
